X:1
T:Title
%%score ( 1 2 ) 3
L:1/8
Q:1/4=90
M:4/4
K:A
V:1 treble nm="Grand Piano, Soprano"
V:2 treble 
V:3 bass nm="Choir Pad, Bass"
V:1
 [A,C][B,D][CE][Ec] [Ec]>[DB] [CA]2 | [CE][CA][DA][DG] [DG]>[DF] [CE]2 | %2
w: By~John~Marchant~Whyte * * * * * *||
 [CE][EA][EB][EB] [EB][EB][EG]E | [Ed]>[Ec] [EB]6 | [A,C][B,D][CE][Ec] [Ec]>[DB] [CA]2 | %5
w: |||
 [CE][CA][DA][DG] [DG]>[DF] [CE]2 | [CA][EG][DF][Fd] [Fd][Fd][Fc][DB] | [CA]>[B,G] [CA]6 | %8
w: |||
 [Ac]>[Bd] [ce]6 | z2 A4 z2 | [CA]>[DB] [Ec][Ec] [Ec][Ec][Ec][EB] | z2 B6 | %12
w: ||||
 [A,C][B,D][CE][Ec] [Ec]>[DB] [CA]2 | [CE][CA][DA][DG] [DG]>[DF] [CE]2 | %14
w: ||
 [CA][EG][DF][Fd] [Fd][Fd][Fc][DB] | [CA]>[B,G] [CA]6- | [CA]2 z2 z4 |] %17
w: |||
V:2
 x8 | x8 | x8 | x8 | x8 | x8 | x8 | x8 | x8 | [Ac]>[Ae] E2 C>C C2 | x8 | [Ed]>[Ec] E2 E>E E2 | x8 | %13
 x8 | x8 | x8 | x8 |] %17
V:3
 [A,,A,][A,,A,][A,,A,][A,,A,] [A,,A,]>[A,,A,] [A,,A,]2 | %1
 [A,,A,][A,,E,][D,F,][D,F,] [D,A,]>[D,A,] [A,,A,]2 | %2
 [A,,A,][A,,A,][E,G,][E,G,] [E,G,][E,G,][E,B,][E,G,] | [E,B,]>[E,A,] [E,G,]6 | %4
 [A,,A,][A,,A,][A,,A,][A,,A,] [A,,A,]>[A,,A,] [A,,A,]2 | %5
 [A,,A,][A,,E,][D,F,][D,F,] [D,A,]>[D,A,] [A,,A,]2 | %6
 [A,,A,][A,,A,][D,A,][D,A,] [D,A,][D,A,][E,A,][E,G,] | [E,A,]>[E,B,] [A,,A,]6 | %8
 z4 [A,C]>[A,C] [A,C]2 | [A,E]>[A,C] [A,C]2 [A,,E,]>[A,,E,] [A,,E,]2 | %10
 A,>A, A,A, A,A,[E,A,][E,G,] | [E,B,]>[E,A,] [E,G,]2 [E,G,]>[E,G,] [E,G,]2 | %12
 [A,,A,][A,,A,][A,,A,][A,,A,] [A,,A,]>[A,,A,] [A,,A,]2 | %13
 [A,,A,][A,,E,][D,F,][D,F,] [D,A,]>[D,A,] [A,,A,]2 | %14
 [A,,A,][A,,A,][D,A,][D,A,] [D,A,][D,A,][E,A,][E,G,] | [E,A,]>[E,B,] [A,,A,]6- | [A,,A,]2 z2 z4 |] %17

